packages/ui-solid/icons/reply_28.svg

<svg width="28" height="28" viewBox="0 0 28 28" fill="none" xmlns="http://www.w3.org/2000/svg">
<path fill-rule="evenodd" clip-rule="evenodd" d="M13.5914 4.30861C13.9405 4.6624 13.9367 5.23224 13.5829 5.58137L7.44618 11.6373H12.3503C14.5999 11.6373 16.3691 11.6373 17.7653 11.8034C19.194 11.9733 20.3495 12.328 21.3085 13.1222C21.6195 13.3798 21.9057 13.666 22.1633 13.977C22.9575 14.936 23.3121 16.0915 23.4821 17.5202C23.6482 18.9163 23.6482 20.6856 23.6481 22.9352V22.9949C23.6481 23.492 23.2452 23.8949 22.7481 23.8949C22.2511 23.8949 21.8481 23.492 21.8481 22.9949C21.8481 20.6725 21.8466 19.0103 21.6947 17.7328C21.5451 16.4754 21.2607 15.7092 20.777 15.1251C20.5912 14.9008 20.3847 14.6943 20.1604 14.5085C19.5762 14.0247 18.8101 13.7404 17.5527 13.5908C16.2752 13.4388 14.613 13.4373 12.2905 13.4373H7.44618L12.8831 18.8027C13.2369 19.1518 13.2407 19.7217 12.8916 20.0755C12.5424 20.4293 11.9726 20.433 11.6188 20.0839L4.62069 13.1779C4.44933 13.0088 4.35286 12.7781 4.35286 12.5373C4.35286 12.2966 4.44933 12.0658 4.62069 11.8967L12.3186 4.30017C12.6724 3.95104 13.2422 3.95481 13.5914 4.30861Z" fill="#007AFF"/>
</svg>

<svg xmlns="http://www.w3.org/2000/svg" width="28" height="28" fill="none"><path fill="currentColor" fill-rule="evenodd" d="M13.591 4.309a.9.9 0 0 1-.008 1.272l-6.137 6.056h4.904c2.25 0 4.02 0 5.415.166 1.429.17 2.584.525 3.543 1.32q.468.386.855.854c.794.959 1.15 2.114 1.32 3.543.165 1.396.165 3.166.165 5.415v.06a.9.9 0 1 1-1.8 0c0-2.323-.001-3.985-.153-5.262-.15-1.258-.434-2.024-.918-2.608a4.7 4.7 0 0 0-.617-.617c-.584-.483-1.35-.768-2.607-.917-1.278-.152-2.94-.154-5.263-.154H7.446l5.437 5.366a.9.9 0 0 1-1.264 1.28L4.62 13.179a.9.9 0 0 1 0-1.281L12.319 4.3a.9.9 0 0 1 1.272.009" clip-rule="evenodd"/></svg>
